!!!!SEGMENT: Mou3005-Qui_ne_regrettroit_le_gentil_Fevin.krn
!!!id: Mou3005
!!!AGN: Chanson
!!!SCT: MacCracken (2014)
!!!voices: 4
!!!COM: Jean Mouton
!!!OTL: Qui ne regrettroit le gentil Fevin
**kern	**text	**kern	**text	**kern	**text	**kern	**text
*part4	*part4	*part3	*part3	*part2	*part2	*part1	*part1
*staff4	*staff4	*staff3	*staff3	*staff2	*staff2	*staff1	*staff1
*I"Bassus	*	*I"Tenor	*	*I"Altus	*	*I"Superius	*
*I'B	*	*I'T	*	*I'A	*	*I'S	*
*clefF4	*	*clefGv2	*	*clefGv2	*	*clefG2	*
*k[b-]	*	*k[b-]	*	*k[b-]	*	*k[b-]	*
*F:	*	*F:	*	*F:	*	*F:	*
*M2/1	*	*M2/1	*	*M2/1	*	*M2/1	*
*met(C|)	*	*met(C|)	*	*met(C|)	*	*met(C|)	*
=1	=1	=1	=1	=1	=1	=1	=1
!LO:TX:a:t=Canon&colon; bassus/altus at the octave	!	!LO:TX:a:t=Canon&colon; tenor/superius at the octave	!	!	!	!	!
0r	.	1.D	Qui	0r	.	0r	.
.	.	2D	ne	.	.	.	.
=2	=2	=2	=2	=2	=2	=2	=2
1r	.	2D	re-	0r	.	0r	.
.	.	2E	-gret-	.	.	.	.
[1D	Qui	[1F	-troit	.	.	.	.
=3	=3	=3	=3	=3	=3	=3	=3
2D]	.	2F]	.	0r	.	1.d	Qui
2D	ne	2G	Le	.	.	.	.
1D	re-	1A	gen-	.	.	.	.
.	.	.	.	.	.	2d	ne
=4	=4	=4	=4	=4	=4	=4	=4
1GG	-gret-	1.B-y	-til	1r	.	2d	re-
.	.	.	.	.	.	2e	-gret-
[1D	-troit	.	.	[1d	Qui	[1f	-troit
.	.	4A	.	.	.	.	.
.	.	4G	.	.	.	.	.
=5	=5	=5	=5	=5	=5	=5	=5
1D]	.	1A	Fe-	2d]	.	2f]	.
.	.	.	.	2d	ne	2g	Le
1r	.	1D	-vin	1d	re-	1a	gen-
=6	=6	=6	=6	=6	=6	=6	=6
1.G	Le	0r	.	1G	-gret-	1.b-y	-til
.	.	.	.	[1d	-troit	.	.
2F	gen-	.	.	.	.	4a	.
.	.	.	.	.	.	4g	.
=7	=7	=7	=7	=7	=7	=7	=7
2D	-til	0d	Bien	1d]	.	1a	Fe-
1F	Fe-	.	.	.	.	.	.
.	.	.	.	1r	.	1d	-vin
4E	.	.	.	.	.	.	.
4D	.	.	.	.	.	.	.
=8	=8	=8	=8	=8	=8	=8	=8
1E	.	1c	vi-	1.g	Le	0r	.
[1D	-vin	1A	-lain	.	.	.	.
.	.	.	.	2f	gen-	.	.
=9	=9	=9	=9	=9	=9	=9	=9
1D]	.	0B-y	se-	2d	-til	0dd	Bien
.	.	.	.	1f	Fe-	.	.
1r	.	.	.	.	.	.	.
.	.	.	.	4e	.	.	.
.	.	.	.	4d	.	.	.
=10	=10	=10	=10	=10	=10	=10	=10
1AA	Bien	1A	-roit.	1e	.	1cc	vi-
1D	vi-	2r	.	[1d	-vin	1a	-lain
.	.	2D	Tres-	.	.	.	.
=11	=11	=11	=11	=11	=11	=11	=11
1.BB-y	-lain	2D	-ha-	1d]	.	0b-y	se-
.	.	2D	-bil-	.	.	.	.
.	.	1G	-le es-	1r	.	.	.
2C	se-	.	.	.	.	.	.
=12	=12	=12	=12	=12	=12	=12	=12
0D	-roit.	1F	-toit,	1A	Bien	1a	-roit.
.	.	2.B-y	Si	1d	vi-	2r	.
.	.	.	.	.	.	2d	Tres-
.	.	4A	.	.	.	.	.
=13	=13	=13	=13	=13	=13	=13	=13
0r	.	2.G	doux	1.B-y	-lain	2d	-ha-
.	.	.	.	.	.	2d	-bil-
.	.	4F	et	.	.	.	.
.	.	1E	be-	.	.	1g	-le es-
.	.	.	.	2c	se-	.	.
=14	=14	=14	=14	=14	=14	=14	=14
1r	.	1D	-gnin,	0d	-roit.	1f	-toit,
2r	.	[1G	si	.	.	2.b-y	Si
2GG	Tres-	.	.	.	.	.	.
.	.	.	.	.	.	4a	.
=15	=15	=15	=15	=15	=15	=15	=15
2GG	-ha-	1G]	.	0r	.	2.g	doux
2GG	-bil-	.	.	.	.	.	.
.	.	.	.	.	.	4f	et
1C	-le es-	1A	doux	.	.	1e	be-
=16	=16	=16	=16	=16	=16	=16	=16
1BB-y	-toit,	2.B-y	et	1r	.	1d	-gnin,
.	.	4A	.	.	.	.	.
2.E-X	Si	4B-y	.	2r	.	[1g	si
.	.	4A	.	.	.	.	.
.	.	4G	.	2G	Tres-	.	.
4D	.	4F	.	.	.	.	.
=17	=17	=17	=17	=17	=17	=17	=17
2.C	doux	4E	.	2G	-ha-	1g]	.
.	.	4D	.	.	.	.	.
.	.	1G	be-	2G	-bil-	.	.
4BB-y	et	.	.	.	.	.	.
1AA	be-	.	.	1c	-le es-	1a	doux
.	.	2F#i	.	.	.	.	.
=18	=18	=18	=18	=18	=18	=18	=18
1GG	-gnin.	0G	-gnin.	1B-y	-toit,	2.b-y	et
.	.	.	.	.	.	4a	.
2r	.	.	.	2.e-i	Si	4b-y	.
.	.	.	.	.	.	4a	.
2BB-y	Dont	.	.	.	.	4g	.
.	.	.	.	4d	.	4f	.
=19	=19	=19	=19	=19	=19	=19	=19
2C	en	1r	.	2.c	doux	4e	.
.	.	.	.	.	.	4d	.
2C	nos-	.	.	.	.	1g	be-
.	.	.	.	4B-y	et	.	.
1D	-tre-	2r	.	1A	be-	.	.
.	.	2F	Dont	.	.	2f#i	.
=20	=20	=20	=20	=20	=20	=20	=20
0GG	-droit	2E	en	1G	-gnin.	0g	-gnin.
.	.	2D	nos-	.	.	.	.
.	.	1G	-tre en-	2r	.	.	.
.	.	.	.	2B-y	Dont	.	.
=21	=21	=21	=21	=21	=21	=21	=21
1r	.	2F	-droit	2c	en	1r	.
.	.	2A	Pri-	2c	nos-	.	.
1D	Pri-	2.A	-ons	1d	-tre en-	2r	.
.	.	.	.	.	.	2f	Dont
.	.	4B-y	.	.	.	.	.
=22	=22	=22	=22	=22	=22	=22	=22
2C	-ons	2c	.	0G	-droit	2e	en
2BB-y	de	1d	de	.	.	2d	nos-
1E-i	cueur	.	.	.	.	1g	-tre en-
.	.	2c	cueur	.	.	.	.
=23	=23	=23	=23	=23	=23	=23	=23
0D	fin	0d	fin	1r	.	2f	-droit
.	.	.	.	.	.	2a	Pri-
.	.	.	.	1d	Pri-	2.a	-ons
.	.	.	.	.	.	4b-y	.
=24	=24	=24	=24	=24	=24	=24	=24
0r	.	0r	.	2c	-ons	2cc	.
.	.	.	.	2B-y	de	1dd	de
.	.	.	.	1e-i	cueur	.	.
.	.	.	.	.	.	2cc	cueur
=25	=25	=25	=25	=25	=25	=25	=25
1D	Qu'en	1.A	Qu'en	0d	fin	0dd	fin
2D	pe-	.	.	.	.	.	.
2D	-ra-	2A	pe-	.	.	.	.
=26	=26	=26	=26	=26	=26	=26	=26
1D	-dis	1B-y	-ra-	0r	.	0r	.
1C	soit	1c	-dis	.	.	.	.
=27	=27	=27	=27	=27	=27	=27	=27
1D	Ou	1A	soit	1d	Qu'en	1.a	Qu'en
2D	sou-	1F	Ou	2d	pe-	.	.
2D	-vent	.	.	2d	-ra-	2a	pe-
=28	=28	=28	=28	=28	=28	=28	=28
1BB-y	pen-	2G	sou-	1d	-dis	1b-y	-ra-
.	.	2G	-vent	.	.	.	.
1AA	-soit	1A	pen-	1c	soit	1cc	-dis
=29	=29	=29	=29	=29	=29	=29	=29
2r	.	1D	-soit	1d	Ou	1a	soit
2D	Per-	.	.	.	.	.	.
2D	-ve-	2r	.	2d	sou-	1f	Ou
2D	-nir	(2B-y	Per-	2d	-vent	.	.
=30	=30	=30	=30	=30	=30	=30	=30
1GG	en-	4B-y)	.	1B-y	pen-	2g	sou-
.	.	4A	-ve-	.	.	.	.
.	.	1G	-nir	.	.	2g	-vent
1D	-fin,	.	.	1A	-soit	1a	pen-
.	.	2F#i	en-	.	.	.	.
=31	=31	=31	=31	=31	=31	=31	=31
1G	per-	2G	-fin,	2r	.	1d	-soit
.	.	2B-y	per-	2d	Per-	.	.
2F	-ve-	2A	-ve-	2d	-ve-	2r	.
[2G	-nir	2G	-nir	2d	-nir	(2b-y	Per-
=32	=32	=32	=32	=32	=32	=32	=32
4G]	.	2B-y	en-	1G	en	4b-y)	.
4F	.	.	.	.	.	4a	-ve-
2E	.	2c	.	.	.	1g	-nir
1D	en-	1A	.	[1dl	fin.	.	.
.	.	.	.	.	.	2f#i	en
=33	=33	=33	=33	=33	=33	=33	=33
00GGl	-fin.	00Gl	-fin.	00d]	.	00gl	fin.
==	==	==	==	==	==	==	==
*-	*-	*-	*-	*-	*-	*-	*-
!!!system-decoration: [*]
!!!RDF**kern: i = editorial accidental
!!!RDF**kern: l = terminal long
!!!ENC: Benjamin Ory
!!!END: 2021/1/7
!!!EED: Benjamin Ory
!!!EEV: 2021/05/02
!!!YEC: Copyright 2021 Benjamin Ory, All Rights Reserved
!!!ONB: Translated from MusicXML on 2021/05/02
